!!!!SEGMENT: pl-kk--kk-i-111--016-001_anonim--deo-gratias-ad-libitum-1mum.krn
!!!cenid: 18xx:2589
!!!COM: Anonim
!!!COM-rismid: pe30004985
!!!CDT:
!!!CNT:
!!!GTL: Deo gratias
!!!OTL: Ad Libitum 1mum
!!!OMV: 001
!!!PDT: 1824
!!!AGN: Sacred
!!!SMS-siglum: PL-Kk
!!!SMS-shelfmark: Kk.I.111
!!!SMS-shelfwork: 016-001 G
!!!SMS-variant:
!!!SMS-altvar:
!!!NIFC-rismid: 1001157704
!!!URL-scan: http://repozytorium.nifc.pl/skany/pl-kk-nut--i-111
!!!ONB-nifc: UWAGA: A, T1, T2. Podział na poszególne Deo gratias. A: skan 0004 (m.in)
**kern	**text	**kern	**text	**kern	**text
*part3	*part3	*part2	*part2	*part1	*part1
*staff3	*staff3	*staff2	*staff2	*staff1	*staff1
*Itenor	*	*Itenor	*	*Ialto	*
*I"Tenore Vagante.	*	*I"Tenore Chorale.	*	*I"Alto.	*
*I'T 2	*	*I'T 1	*	*I'A	*
*clefC4	*	*clefC4	*	*clefC3	*
*k[b-]	*	*k[b-]	*	*k[b-]	*
*F:	*	*F:	*	*F:	*
*M2/1	*	*M2/1	*	*M2/1	*
*all\right	*	*all\right	*	*all\right	*
*2\right	*	*2\right	*	*2\right	*
*met(c|)	*	*met(c|)	*	*met(c|)	*
=1	=1	=1	=1	=1	=1
!LO:TX:a:t=6.	!	!	!	!	!
!	!	!LO:TX:t=P:problem:kreska pseudotaktowa	!	!	!
!	!	!	!	!LO:TX:a:t=3.	!
!	!	!	!	!LO:TX:t=P:problem:all2\right:global	!
00r	.	1c	De-	0r	.
.	.	2d\	.	.	.
!	!	!LO:TX:t=P:problem:kreska pseudotaktowa	!	!	!
.	.	2A\	-o	.	.
=2-	=2	=2	=2	=2-	=2
!	!	!	!	!LO:TX:t=P:problem:kreska pseudotaktowa	!
.	.	2B-X\	gra-	1r	.
!	!	!LO:TX:t=P:problem:kreska pseudotaktowa	!	!	!
.	.	2c\	-ti-	.	.
!	!	!	!	!LO:TX:t=P:problem:kreska pseudotaktowa	!
.	.	2F/	-as	1f	De-
!	!	!LO:TX:t=P:problem:kreska pseudotaktowa	!	!	!
.	.	2c\	De-	.	.
=3-	=3	=3	=3	=3	=3
!LO:TX:t=P:problem:kreska pseudotaktowa	!	!	!	!	!
0r	.	2c\	-o	2a\	-o
!	!	!	!	!LO:TX:t=P:problem:kreska pseudotaktowa	!
.	.	1c	gra-	2e\	.
.	.	.	.	2f\	gra-
!	!	!LO:TX:t=P:problem:kreska pseudotaktowa	!	!LO:TX:t=P:problem:kreska pseudotaktowa	!
.	.	2Bn\	-ti-	2g\	-ti-
=4	=4	=4	=4	=4	=4
!LO:TX:t=P:problem:kreska pseudotaktowa	!	!	!	!	!
1c	De-	2c\	-as	2c\	-as
!	!	!	!	!LO:TX:t=P:problem:kreska pseudotaktowa	!
.	.	(4c\	De-	2e\	De-
!	!	!LO:TX:t=P:problem:kreska pseudotaktowa	!	!	!
.	.	4B-X\)	.	.	.
2d\	.	2A\	-o	1.f	-o
!LO:TX:t=P:problem:kreska pseudotaktowa	!	!LO:TX:t=P:problem:kreska pseudotaktowa	!	!	!
2A/	-o	2c\	.	.	.
=5	=5	=5	=5	=5-	=5
2B-\	gra-	2d\	gra-	.	.
!LO:TX:t=P:problem:kreska pseudotaktowa	!	!	!	!LO:TX:t=P:problem:kreska pseudotaktowa	!
2c\	-ti-	1c	.	2e\	.
2F/	-as	.	.	2f\	.
!LO:TX:t=P:problem:kreska pseudotaktowa	!	!LO:TX:t=P:problem:kreska pseudotaktowa	!	!	!
2A\	De-	2c\	-ti-	1f\	gra-
=6	=6	=6	=6	=6-	=6
!LO:TX:t=P:problem:kreska pseudotaktowa	!	!	!	!	!
1c	-o	2c\	-as	.	.
!	!	!	!	!LO:TX:t=P:problem:kreska pseudotaktowa	!
.	.	1c	De-	2g\	.
!LO:TX:t=P:problem:kreska pseudotaktowa	!	!	!	!	!
1d	gra-	.	.	2a\	.
!	!	!LO:TX:t=P:problem:kreska pseudotaktowa	!	!LO:TX:t=P:problem:kreska pseudotaktowa	!
.	.	2Bn\	-o	2g\	.
=7	=7	=7	=7	=7	=7
!LO:TX:t=P:problem:kreska pseudotaktowa	!	!	!	!	!
1en	.	2c\	.	1.g	.
.	.	1c	.	.	.
!LO:TX:t=P:problem:kreska pseudotaktowa	!	!	!	!	!
1d	.	.	.	.	.
!	!	!	!	!LO:TX:t=P:problem:kreska pseudotaktowa	!
.	.	1Bn\	.	2g\	-ti-
!	!	!	!	!LO:LB:g=original	!
=8	=8	=8-	=8	=8	=8
!LO:TX:t=P:problem:kreska pseudotaktowa	!	!	!	!	!
1c	.	.	.	2e\	-as
.	.	1A	.	1e	De-
!LO:TX:t=P:problem:kreska pseudotaktowa	!	!	!	!	!
1Bn	.	.	.	.	.
!	!	!LO:TX:t=P:problem:kreska pseudotaktowa	!	!LO:TX:t=P:problem:kreska pseudotaktowa	!
.	.	2G/	.	2e\	-o
!	!	!LO:LB:g=original	!	!	!
=9	=9	=9	=9	=9	=9
!LO:TX:t=P:problem:kreska pseudotaktowa	!	!LO:TX:t=P:problem:kreska pseudotaktowa	!	!	!
1A	.	1A	.	2c\	gra-
.	.	.	.	1f	.
!	!	!LO:TX:t=P:problem:kreska pseudotaktowa	!	!	!
2G/	.	1G	.	.	.
!LO:TX:t=P:problem:kreska pseudotaktowa	!	!	!	!LO:TX:t=P:problem:kreska pseudotaktowa	!
2c\	.	.	.	2e\	.
=10	=10	=10	=10	=10	=10
!	!	!LO:TX:t=P:problem:kreska pseudotaktowa	!	!	!
2Bn\	.	1G	.	2d\	.
!	!	!	!	!LO:TX:t=P:problem:kreska pseudotaktowa	!
1c	.	.	.	2e\	.
.	.	2.G/	gra-	2.d\	.
!LO:TX:t=P:problem:kreska pseudotaktowa	!	!	!	!	!
2Bn\	-ti-	.	.	.	.
!	!	!LO:TX:t=P:problem:kreska pseudotaktowa	!	!LO:TX:t=P:problem:kreska pseudotaktowa	!
.	.	4G/	-ti-	4d\	-ti-
!LO:LB:g=original	!	!	!	!	!
=11	=11	=11	=11	=11	=11
2c\	-as	2G/	-as	2e\	-as
!LO:TX:t=P:problem:kreska pseudotaktowa	!	!LO:TX:t=P:problem:kreska pseudotaktowa	!	!LO:TX:t=P:problem:kreska pseudotaktowa	!
2c\	De-	2G/	De-	2e\	De-
!	!	!	!	!LO:TX:t=P:problem:kreska pseudotaktowa	!
2c\	-o	2A\	-o	1f	-o
!LO:TX:t=P:problem:kreska pseudotaktowa	!	!LO:TX:t=P:problem:kreska pseudotaktowa	!	!	!
2A\	.	2c\	.	.	.
=12	=12	=12	=12	=12	=12
2B-X\	gra-	2d\	.	1.f	gra-
!LO:TX:t=P:problem:kreska pseudotaktowa	!	!LO:TX:t=P:problem:kreska pseudotaktowa	!	!	!
2A\	.	2c\	.	.	.
2.G/	.	2.c\	gra-	.	.
!	!	!	!	!LO:TX:t=P:problem:kreska pseudotaktowa	!
.	.	.	.	2e\	-ti-
!LO:TX:t=P:problem:kreska pseudotaktowa	!	!LO:TX:t=P:problem:kreska pseudotaktowa	!	!	!
4G/	-ti-	4c\	-ti-	.	.
=13	=13	=13	=13	=13	=13
0A;	-as.	0c;	-as.	0f;	-as.
==	==	==	==	==	==
*-	*-	*-	*-	*-	*-
!!!system-decoration: [(s1,s2,s3)]
!!!AIN: 1 alto 2 tenor
!!!ENC: Kamil Watkowski
!!!END: 2021-08-04
